public/img/Logo/youtube.svg

<svg width="45" height="31" viewBox="0 0 45 31" fill="none" xmlns="http://www.w3.org/2000/svg">
<g clip-path="url(#clip0_98_2082)">
<path d="M43.1691 26.217C42.9187 27.1246 42.4303 27.9521 41.7524 28.617C41.0746 29.2819 40.231 29.761 39.3056 30.0066C35.9179 30.9128 22.2835 30.9128 22.2835 30.9128C22.2835 30.9128 8.64841 30.8854 5.26069 29.9792C4.33532 29.7335 3.49171 29.2544 2.81386 28.5895C2.13601 27.9245 1.64758 27.097 1.39721 26.1894C0.372503 20.2854 -0.024998 11.2891 1.42534 5.62126C1.67574 4.71362 2.16418 3.88616 2.84203 3.22127C3.51988 2.55638 4.36348 2.07726 5.28883 1.83162C8.67654 0.925396 22.3113 0.925396 22.3113 0.925396C22.3113 0.925396 35.9459 0.925396 39.3334 1.83162C40.2588 2.07723 41.1024 2.55634 41.7803 3.22124C42.4582 3.88613 42.9467 4.7136 43.1971 5.62126C44.2779 11.5336 44.6109 20.5244 43.1691 26.217Z" fill="#FF0000"/>
<path d="M17.9438 9.49328L29.2546 15.9191L17.9438 22.345V9.49328Z" fill="white"/>
</g>
<defs>
<clipPath id="clip0_98_2082">
<rect width="43.6552" height="30.107" fill="white" transform="matrix(1 0 0 -1 0.478027 30.9128)"/>
</clipPath>
</defs>
</svg>

<svg xmlns="http://www.w3.org/2000/svg" width="45" height="31" fill="none"><g clip-path="url(#a)"><path fill="red" d="M43.17 26.217a5.36 5.36 0 0 1-1.418 2.4 5.5 5.5 0 0 1-2.446 1.39c-3.388.906-17.022.906-17.022.906s-13.636-.028-17.023-.934a5.5 5.5 0 0 1-2.447-1.39 5.36 5.36 0 0 1-1.417-2.4c-1.024-5.904-1.422-14.9.028-20.568a5.36 5.36 0 0 1 1.417-2.4 5.5 5.5 0 0 1 2.447-1.39C8.677.926 22.31.926 22.31.926s13.635 0 17.022.907a5.5 5.5 0 0 1 2.447 1.39 5.36 5.36 0 0 1 1.417 2.4c1.08 5.912 1.414 14.902-.028 20.595"/><path fill="#fff" d="m17.944 9.493 11.31 6.426-11.31 6.426z"/></g><defs><clipPath id="a"><path fill="#fff" d="M.478 30.913h43.655V.806H.478z"/></clipPath></defs></svg>
